X:1
T:Title
%%score { ( 1 4 ) | ( 2 3 ) }
L:1/8
Q:1/4=84
M:6/8
K:Bb
V:1 treble nm="Grand Piano"
V:4 treble 
V:2 bass 
V:3 bass 
V:1
 [DF][DG][DA] [DB]2 [Dc] | [EB]2 [EA] [EA]2 [EG] | .[F,EF]2 [EG] FA[EG] | [F,DF]3- [F,DF]2 [F,DF] | %4
w: G.~C.~Gow * * * *||||
 .[F,EF]2 [DA] [DB]2 [Dc] | [EB]2 [EA] [EA]2 [EG] | .[F,EF]2 [Ec] [EG]2 [EA] | [DB]3- [DB]2 [DB] | %8
w: ||||
 AcB AGA | %9
w: |
 B2 B B2 B[Q:1/4=83][Q:1/4=82][Q:1/4=80][Q:1/4=79][Q:1/4=78][Q:1/4=77][Q:1/4=75][Q:1/4=74][Q:1/4=73][Q:1/4=72][Q:1/4=70][Q:1/4=69][Q:1/4=68][Q:1/4=67][Q:1/4=65][Q:1/4=64] | %10
w: |
 _dcB BAB | c6[Q:1/4=84] | .[B,DF]2 [DA] [DB]2 [Dc] | [EB]2 [EA] [EA]2 [EG] | z3 .c3 | [DB]6 |] %16
w: ||||||
V:2
 [B,,F,][B,,F,][B,,F,] [B,,F,]2 [B,,F,] | [C,F,]2 [C,F,] [C,F,]2 [C,F,] | z A[F,,F,] z E[A,,F,] | %3
 B,,3- B,,2 B,, | z G[B,,F,] [B,,F,]2 [B,,F,] | [C,F,]2 [C,F,] [C,F,]2 [C,F,] | %6
 z[K:treble] d[K:bass][F,,F,] [F,,F,]2 [F,,F,] | [B,,F,]3- [B,,F,]2 [B,,F,] | %8
 [D,D]-[D,A,D][D,G,D] [D,D]-[D,=E,D][D,^F,D] | [G,D]2 [G,_D] [G,=D]2 [G,D] | %10
 [^F,=E]-[F,CE][F,_DE] DC[F,B,E] | .B,3 z3 | z G[B,,F,] [B,,F,]2 [B,,F,] | %13
 [C,F,]2 [C,F,] [C,F,]2 [C,F,] | [F,,F,]2 [F,,F,] [F,,F,]2 [F,,F,] | [B,,F,]6 |] %16
V:3
 x6 | x6 | .F,,3 .[F,,F,]3 | x6 | .B,,3 z3 | x6 | .F,,3[K:treble][K:bass] z3 | x6 | .^F,3 .F,3 | %9
 x6 | .B,3 .[^F,=E]3 | [F,F]3- [F,F]2 F, | .B,,3 z3 | x6 | x6 | x6 |] %16
V:4
 x6 | x6 | x6 | x6 | x6 | x6 | x6 | x6 | x6 | x6 | x6 | z A,G, A,2 [A,EF] | x6 | x6 | %14
 [EF][Ge][Fd] E-[EG][EA] | x6 |] %16

